X:60
T:A-Rolling' Down The River
M:2/4
L:1/16
Q:1/4=3D100
K:Bb
B,2C2|\
D2D2 DDCC|A,2C2 C2(CD)|E2E2 EEDC|B,2D2 D2(DE)|
F2F2 BBBB|A2G2 G3G |F4 F4|E4 A,4|C4 B,4-|B,6||
K:Eb
L:1/8
B,|\
B,2 E2|E3 D|F2 A2|A3 F|
E2 E2|E2 C2|C2 B,2-|B,3 B,|
C2 E2|E3  E|F2 A2|A2 GF|
E2 E2|E2 FG|A2 A,2|
K:Ab
A,2 A,A,|\
C2 E2|CC B,A,|G,2 B,2|B,2 (B,C)|
D2 D2|DD CB, |A,2 C2 |C2 (CD)|
E2 E2|AA EC  |D2F2|A3 F|
E2 E2|E2(FG) |A2 A,2||
